icons/bhi_add-o.svg

<svg xmlns="http://www.w3.org/2000/svg" viewBox="0 0 512 512" enable-background="new 0 0 512 512"><path fill="#010101" d="M288 128.6h-64v95.4h-96v64h96v96.6h64v-96.6h96v-64h-96v-95.4zm-32-128c-140.8 0-256 115.2-256 256s115.2 256 256 256 256-115.2 256-256-115.2-256-256-256zm0 460.8c-112.6 0-204.8-92.2-204.8-204.8s92.2-204.8 204.8-204.8 204.8 92.2 204.8 204.8-92.2 204.8-204.8 204.8z"/></svg>

<?xml version="1.0" encoding="utf-8"?>
<!-- Generator: Adobe Illustrator 19.2.0, SVG Export Plug-In . SVG Version: 6.00 Build 0)  -->
<svg version="1.1" id="Layer_1" xmlns="http://www.w3.org/2000/svg" xmlns:xlink="http://www.w3.org/1999/xlink" x="0px" y="0px"
	 viewBox="0 0 512 512" enable-background="new 0 0 512 512" xml:space="preserve">
<g id="add-circle-outline_7_">
	<path fill="#010101" d="M288,128.6h-64V224h-96v64h96v96.6h64V288h96v-64h-96V128.6z M256,0.6C115.2,0.6,0,115.8,0,256.6
		s115.2,256,256,256s256-115.2,256-256S396.8,0.6,256,0.6z M256,461.4c-112.6,0-204.8-92.2-204.8-204.8S143.4,51.8,256,51.8
		s204.8,92.2,204.8,204.8S368.6,461.4,256,461.4z"/>
</g>
</svg>
